X: 20371
T: John Clifford's
R: polka
M: 2/4
K: Dmajor
|:B/|AF A2|BG B2|Ad fd|ed B/c/d/B/|
AF AF/A/|BG Bd/B/|Ad fd|ed d3/2:|
|:B/|Ad f>g|fe e>^d|ef ga|ba f/g/a/f/|
Ad ff/g/|fe e>^d|ef af|ed d3/2:|

